X:1
T:Title
%%score 1 2
L:1/8
Q:1/4=103
M:3/4
K:Ab
V:1 treble nm="Grand Piano, Soprano"
V:2 bass nm="Choir Pad, At the Tomb, Shaw, 1877"
V:1
 [CE][CE] [Ec]4 | [EA][Ec] [FB]2 [DF]2 | [FA]>[DF] [CE]4 | [EA]>[Ec] [EB]4 | [DE]>[DE] [Cc]4 | %5
w: By~Knowles~Shaw * *|||||
 [EA]>[Ec] [FB]2 [DF]2 | [DA]>[DF] [CE]4 | [DB]>[Ec] [CA]4 | [CE][CE] [DF]2 [DF]2 | %9
w: ||||
 [DA]>[DF] [DF]2 [CE]2 | [CE][CE] [DF]2 [DF]2 | [FA][DF] [CE]4 | [CE][CE] [Ec]4 | %13
w: ||||
 [EA]>[Ec] [FB]2 [DF]2 | [DA]>[DF] [CE]4 | [DB]>[Ec] [CA]4 | z2 [CE]2 [CE]2 | z2 [CA]2 [CA]2 | %18
w: |||||
 z [Ae] [Af]2 [Ac]2 | [Ac]>[Ae] [Ae]2 [Ac]2 | [Ec][Ec] [EB]4 | [Ec]>[DB] [CA]4 | %22
w: ||||
 [Ae]>[Ae] [Af]2 [Ae]2 | [Ae][Ae] [Af]2 .[Ae]2 | [Ed][Ec] [EB]2 .[EB]2 | [EA][EB] [Ec]2 .[Ee]2 | %26
w: ||||
 [Ae]>[Ae] [Af]2 .[Ae]2 | [Ae]>[Ae] [Af]2 .[Ae]2 | [Ec][Ec] [EB]4 | [Ec]>[DB] [CA]4- | [CA]4 z2 |] %31
w: |||||
V:2
 [A,,A,][A,,A,] [A,,A,]4 | [C,A,][A,,A,] [D,A,]2 [D,A,]2 | [D,A,]>[D,A,] [A,,A,]4 | %3
 [C,A,]>[A,,A,] [E,G,]4 | [E,G,]>[E,G,] [A,,A,]4 | [C,A,]>[A,,A,] [D,A,]2 [D,A,]2 | %6
 [D,F,]>[D,A,] [E,A,]4 | [E,G,]>[E,G,] [A,,A,]4 | [A,,A,][A,,A,] [D,A,]2 [D,A,]2 | %9
 [D,F,]>[D,A,] [A,,A,]2 [A,,A,]2 | [A,,A,][A,,A,] [D,A,]2 [D,A,]2 | [D,A,][D,A,] [A,,A,]4 | %12
 [A,,A,][A,,A,] [A,,A,]4 | [C,A,]>[A,,A,] [D,A,]2 [D,A,]2 | [D,F,]>[D,A,] [E,A,]4 | %15
 [E,G,]>[E,G,] [A,,A,]4 | z6 | z6 | z [A,C] [A,C]2 [A,E]2 | [A,E]>[A,C] [A,C]2 [A,E]2 | %20
 [A,,A,][C,A,] [E,G,]4 | [E,A,]>[E,G,] [A,,A,]4 | [A,C]>[A,C] [A,D]2 [A,C]2 | %23
 [A,C][A,C] [A,D]2 .[A,C]2 | A,[A,,A,] [E,G,]2 .[E,G,]2 | [E,F,][E,G,] A,2 .[A,C]2 | %26
 [A,C]>[A,C] [A,D]2 .[A,C]2 | [A,C]>[A,C] [A,D]2 .[A,C]2 | [A,,A,][C,A,] [E,G,]4 | %29
 [E,A,]>[E,G,] [A,,A,]4- | [A,,A,]4 z2 |] %31

